X: 1
T: the Soup Dragon
C: Gordon Duncan
R: jig
Z: 2019 John Chambers <jc:trillian.mit.edu> from Stephen Thomforde's copy
F: https://www.youtube.com/watch?v=Mb21k-Vuv6Q
M: 6/8
L: 1/8
K: Bm
"^A"|:\
e |"Bm"fBB BAB | "D"eff fed | "Em"eee e2d | "A"eff    ede |\
[2 "Bm"fBB BAB | "D"eff fed |  "A"eee f2e |    dBA "Bm"B2 :|
"^B"|:\
e | "D"faa afd |    eff fed |  "A"eee e2d |    eff    ede |\
[1 "Bm"faa afd |    eff fed |  "A"eee f2e |    dBA "Bm"B2 :|
